dist/images/logo.svg

<svg width="200" height="39" viewBox="0 0 200 39" fill="none" xmlns="http://www.w3.org/2000/svg">
<path d="M10.593 31.33C8.635 31.33 6.952 31.033 5.544 30.439C4.136 29.845 3.069 29.064 2.343 28.096C1.617 27.128 1.232 26.083 1.188 24.961C1.188 24.763 1.254 24.598 1.386 24.466C1.518 24.334 1.683 24.268 1.881 24.268H4.818C5.082 24.268 5.28 24.323 5.412 24.433C5.566 24.521 5.709 24.675 5.841 24.895C6.061 25.643 6.567 26.27 7.359 26.776C8.151 27.282 9.229 27.535 10.593 27.535C12.155 27.535 13.332 27.282 14.124 26.776C14.916 26.248 15.312 25.522 15.312 24.598C15.312 23.982 15.103 23.476 14.685 23.08C14.289 22.684 13.684 22.343 12.87 22.057C12.078 21.771 10.89 21.419 9.306 21.001C6.71 20.385 4.807 19.571 3.597 18.559C2.409 17.525 1.815 16.062 1.815 14.17C1.815 12.894 2.156 11.761 2.838 10.771C3.542 9.781 4.543 9 5.841 8.428C7.161 7.856 8.69 7.57 10.428 7.57C12.232 7.57 13.794 7.889 15.114 8.527C16.434 9.165 17.435 9.968 18.117 10.936C18.821 11.882 19.195 12.828 19.239 13.774C19.239 13.972 19.173 14.137 19.041 14.269C18.909 14.401 18.744 14.467 18.546 14.467H15.477C15.015 14.467 14.696 14.258 14.52 13.84C14.388 13.136 13.948 12.553 13.2 12.091C12.452 11.607 11.528 11.365 10.428 11.365C9.196 11.365 8.228 11.596 7.524 12.058C6.82 12.52 6.468 13.191 6.468 14.071C6.468 14.687 6.644 15.193 6.996 15.589C7.348 15.985 7.898 16.337 8.646 16.645C9.416 16.953 10.516 17.294 11.946 17.668C13.882 18.108 15.422 18.603 16.566 19.153C17.732 19.703 18.59 20.396 19.14 21.232C19.69 22.068 19.965 23.135 19.965 24.433C19.965 25.841 19.569 27.073 18.777 28.129C18.007 29.163 16.907 29.955 15.477 30.505C14.069 31.055 12.441 31.33 10.593 31.33ZM25.4299 11.002C25.2099 11.002 25.0229 10.925 24.8689 10.771C24.7149 10.617 24.6379 10.43 24.6379 10.21V7.834C24.6379 7.614 24.7149 7.427 24.8689 7.273C25.0229 7.119 25.2099 7.042 25.4299 7.042H28.4329C28.6529 7.042 28.8399 7.119 28.9939 7.273C29.1699 7.427 29.2579 7.614 29.2579 7.834V10.21C29.2579 10.43 29.1809 10.617 29.0269 10.771C28.8729 10.925 28.6749 11.002 28.4329 11.002H25.4299ZM25.5619 31C25.3419 31 25.1549 30.923 25.0009 30.769C24.8469 30.615 24.7699 30.428 24.7699 30.208V14.632C24.7699 14.412 24.8469 14.225 25.0009 14.071C25.1549 13.917 25.3419 13.84 25.5619 13.84H28.3009C28.5429 13.84 28.7299 13.917 28.8619 14.071C29.0159 14.203 29.0929 14.39 29.0929 14.632V30.208C29.0929 30.428 29.0159 30.615 28.8619 30.769C28.7299 30.923 28.5429 31 28.3009 31H25.5619ZM35.682 31C35.462 31 35.275 30.923 35.121 30.769C34.967 30.615 34.89 30.428 34.89 30.208V14.632C34.89 14.412 34.967 14.225 35.121 14.071C35.275 13.917 35.462 13.84 35.682 13.84H38.256C38.476 13.84 38.663 13.917 38.817 14.071C38.971 14.225 39.048 14.412 39.048 14.632V15.754C40.192 14.258 41.787 13.51 43.833 13.51C46.275 13.51 47.98 14.489 48.948 16.447C49.476 15.567 50.224 14.863 51.192 14.335C52.16 13.785 53.205 13.51 54.327 13.51C56.131 13.51 57.605 14.126 58.749 15.358C59.893 16.59 60.465 18.383 60.465 20.737V30.208C60.465 30.428 60.388 30.615 60.234 30.769C60.102 30.923 59.915 31 59.673 31H56.967C56.747 31 56.56 30.923 56.406 30.769C56.252 30.615 56.175 30.428 56.175 30.208V21.001C56.175 19.615 55.878 18.614 55.284 17.998C54.712 17.36 53.942 17.041 52.974 17.041C52.116 17.041 51.379 17.36 50.763 17.998C50.169 18.636 49.872 19.637 49.872 21.001V30.208C49.872 30.428 49.795 30.615 49.641 30.769C49.487 30.923 49.3 31 49.08 31H46.374C46.154 31 45.967 30.923 45.813 30.769C45.659 30.615 45.582 30.428 45.582 30.208V21.001C45.582 19.615 45.274 18.614 44.658 17.998C44.064 17.36 43.305 17.041 42.381 17.041C41.501 17.041 40.753 17.36 40.137 17.998C39.543 18.636 39.246 19.637 39.246 21.001V30.208C39.246 30.428 39.169 30.615 39.015 30.769C38.861 30.923 38.674 31 38.454 31H35.682ZM66.9114 37.27C66.6914 37.27 66.5044 37.193 66.3504 37.039C66.1964 36.907 66.1194 36.72 66.1194 36.478V14.632C66.1194 14.39 66.1964 14.203 66.3504 14.071C66.5044 13.917 66.6914 13.84 66.9114 13.84H69.5184C69.7604 13.84 69.9474 13.917 70.0794 14.071C70.2334 14.203 70.3104 14.39 70.3104 14.632V15.952C71.5424 14.324 73.3024 13.51 75.5904 13.51C77.8124 13.51 79.5174 14.214 80.7054 15.622C81.8934 17.008 82.5314 18.889 82.6194 21.265C82.6414 21.529 82.6524 21.914 82.6524 22.42C82.6524 22.948 82.6414 23.344 82.6194 23.608C82.5314 25.918 81.8934 27.788 80.7054 29.218C79.5174 30.626 77.8124 31.33 75.5904 31.33C73.3684 31.33 71.6744 30.549 70.5084 28.987V36.478C70.5084 36.72 70.4314 36.907 70.2774 37.039C70.1454 37.193 69.9584 37.27 69.7164 37.27H66.9114ZM74.3694 27.799C76.7454 27.799 78.0104 26.336 78.1644 23.41C78.1864 23.19 78.1974 22.86 78.1974 22.42C78.1974 21.98 78.1864 21.65 78.1644 21.43C78.0104 18.504 76.7454 17.041 74.3694 17.041C73.0934 17.041 72.1474 17.448 71.5314 18.262C70.9154 19.076 70.5744 20.077 70.5084 21.265L70.4754 22.519L70.5084 23.806C70.5524 24.906 70.8934 25.852 71.5314 26.644C72.1914 27.414 73.1374 27.799 74.3694 27.799ZM88.6009 31C88.3809 31 88.1939 30.923 88.0399 30.769C87.8859 30.615 87.8089 30.428 87.8089 30.208V8.362C87.8089 8.12 87.8859 7.933 88.0399 7.801C88.1939 7.647 88.3809 7.57 88.6009 7.57H91.3399C91.5819 7.57 91.7689 7.647 91.9009 7.801C92.0549 7.933 92.1319 8.12 92.1319 8.362V30.208C92.1319 30.428 92.0549 30.615 91.9009 30.769C91.7689 30.923 91.5819 31 91.3399 31H88.6009ZM105.32 31.33C102.878 31.33 100.931 30.626 99.4793 29.218C98.0493 27.788 97.2903 25.786 97.2023 23.212L97.1693 22.387L97.2023 21.562C97.3123 19.054 98.0823 17.085 99.5123 15.655C100.964 14.225 102.9 13.51 105.32 13.51C107.916 13.51 109.918 14.302 111.326 15.886C112.756 17.47 113.471 19.582 113.471 22.222V22.915C113.471 23.135 113.394 23.322 113.24 23.476C113.086 23.63 112.888 23.707 112.646 23.707H101.69V23.971C101.734 25.181 102.064 26.204 102.68 27.04C103.318 27.854 104.187 28.261 105.287 28.261C106.585 28.261 107.63 27.755 108.422 26.743C108.62 26.501 108.774 26.347 108.884 26.281C109.016 26.215 109.203 26.182 109.445 26.182H112.283C112.481 26.182 112.646 26.248 112.778 26.38C112.932 26.49 113.009 26.633 113.009 26.809C113.009 27.337 112.69 27.964 112.052 28.69C111.436 29.394 110.545 30.01 109.379 30.538C108.213 31.066 106.86 31.33 105.32 31.33ZM108.983 20.935V20.836C108.983 19.538 108.653 18.493 107.993 17.701C107.355 16.909 106.464 16.513 105.32 16.513C104.176 16.513 103.285 16.909 102.647 17.701C102.009 18.493 101.69 19.538 101.69 20.836V20.935H108.983Z" fill="#FF6838"/>
<path d="M119.581 31C119.361 31 119.174 30.923 119.02 30.769C118.866 30.615 118.789 30.428 118.789 30.208V8.725C118.789 8.483 118.855 8.285 118.987 8.131C119.141 7.977 119.339 7.9 119.581 7.9H133.903C134.145 7.9 134.343 7.977 134.497 8.131C134.651 8.285 134.728 8.483 134.728 8.725V11.035C134.728 11.277 134.651 11.475 134.497 11.629C134.343 11.761 134.145 11.827 133.903 11.827H123.31V18.097H133.243C133.485 18.097 133.683 18.174 133.837 18.328C133.991 18.482 134.068 18.68 134.068 18.922V21.232C134.068 21.474 133.991 21.672 133.837 21.826C133.683 21.958 133.485 22.024 133.243 22.024H123.31V30.208C123.31 30.45 123.233 30.648 123.079 30.802C122.925 30.934 122.727 31 122.485 31H119.581ZM146.899 31.33C144.325 31.33 142.334 30.67 140.926 29.35C139.518 28.008 138.759 26.182 138.649 23.872L138.616 22.42L138.649 20.968C138.759 18.68 139.529 16.865 140.959 15.523C142.389 14.181 144.369 13.51 146.899 13.51C149.429 13.51 151.409 14.181 152.839 15.523C154.269 16.865 155.039 18.68 155.149 20.968C155.171 21.232 155.182 21.716 155.182 22.42C155.182 23.124 155.171 23.608 155.149 23.872C155.039 26.182 154.28 28.008 152.872 29.35C151.464 30.67 149.473 31.33 146.899 31.33ZM146.899 28.063C148.065 28.063 148.967 27.7 149.605 26.974C150.243 26.226 150.595 25.137 150.661 23.707C150.683 23.487 150.694 23.058 150.694 22.42C150.694 21.782 150.683 21.353 150.661 21.133C150.595 19.703 150.243 18.625 149.605 17.899C148.967 17.151 148.065 16.777 146.899 16.777C145.733 16.777 144.831 17.151 144.193 17.899C143.555 18.625 143.203 19.703 143.137 21.133L143.104 22.42L143.137 23.707C143.203 25.137 143.555 26.226 144.193 26.974C144.831 27.7 145.733 28.063 146.899 28.063ZM167.848 31.33C165.274 31.33 163.283 30.67 161.875 29.35C160.467 28.008 159.708 26.182 159.598 23.872L159.565 22.42L159.598 20.968C159.708 18.68 160.478 16.865 161.908 15.523C163.338 14.181 165.318 13.51 167.848 13.51C170.378 13.51 172.358 14.181 173.788 15.523C175.218 16.865 175.988 18.68 176.098 20.968C176.12 21.232 176.131 21.716 176.131 22.42C176.131 23.124 176.12 23.608 176.098 23.872C175.988 26.182 175.229 28.008 173.821 29.35C172.413 30.67 170.422 31.33 167.848 31.33ZM167.848 28.063C169.014 28.063 169.916 27.7 170.554 26.974C171.192 26.226 171.544 25.137 171.61 23.707C171.632 23.487 171.643 23.058 171.643 22.42C171.643 21.782 171.632 21.353 171.61 21.133C171.544 19.703 171.192 18.625 170.554 17.899C169.916 17.151 169.014 16.777 167.848 16.777C166.682 16.777 165.78 17.151 165.142 17.899C164.504 18.625 164.152 19.703 164.086 21.133L164.053 22.42L164.086 23.707C164.152 25.137 164.504 26.226 165.142 26.974C165.78 27.7 166.682 28.063 167.848 28.063ZM187.575 31.33C185.353 31.33 183.648 30.615 182.46 29.185C181.272 27.755 180.634 25.852 180.546 23.476L180.513 22.387L180.546 21.331C180.612 19.021 181.239 17.14 182.427 15.688C183.637 14.236 185.353 13.51 187.575 13.51C189.709 13.51 191.403 14.236 192.657 15.688V8.362C192.657 8.12 192.734 7.933 192.888 7.801C193.042 7.647 193.229 7.57 193.449 7.57H196.254C196.496 7.57 196.683 7.647 196.815 7.801C196.969 7.933 197.046 8.12 197.046 8.362V30.208C197.046 30.428 196.969 30.615 196.815 30.769C196.683 30.923 196.496 31 196.254 31H193.647C193.427 31 193.24 30.923 193.086 30.769C192.932 30.615 192.855 30.428 192.855 30.208V28.987C191.601 30.549 189.841 31.33 187.575 31.33ZM188.796 27.799C190.072 27.799 191.018 27.392 191.634 26.578C192.25 25.764 192.591 24.763 192.657 23.575C192.679 23.311 192.69 22.882 192.69 22.288C192.69 21.716 192.679 21.298 192.657 21.034C192.613 19.934 192.261 18.999 191.601 18.229C190.963 17.437 190.028 17.041 188.796 17.041C186.42 17.041 185.155 18.504 185.001 21.43L184.968 22.42L185.001 23.41C185.155 26.336 186.42 27.799 188.796 27.799Z" fill="#363853"/>
</svg>

<svg width="200" height="39" fill="none" xmlns="http://www.w3.org/2000/svg"><path d="M10.593 31.33c-1.958 0-3.641-.297-5.049-.891-1.408-.594-2.475-1.375-3.201-2.343s-1.111-2.013-1.155-3.135c0-.198.066-.363.198-.495a.672.672 0 01.495-.198h2.937c.264 0 .462.055.594.165.154.088.297.242.429.462.22.748.726 1.375 1.518 1.881s1.87.759 3.234.759c1.562 0 2.739-.253 3.531-.759.792-.528 1.188-1.254 1.188-2.178 0-.616-.209-1.122-.627-1.518-.396-.396-1.001-.737-1.815-1.023-.792-.286-1.98-.638-3.564-1.056-2.596-.616-4.499-1.43-5.709-2.442-1.188-1.034-1.782-2.497-1.782-4.389 0-1.276.341-2.409 1.023-3.399.704-.99 1.705-1.771 3.003-2.343 1.32-.572 2.849-.858 4.587-.858 1.804 0 3.366.319 4.686.957 1.32.638 2.321 1.441 3.003 2.409.704.946 1.078 1.892 1.122 2.838a.672.672 0 01-.198.495.672.672 0 01-.495.198h-3.069c-.462 0-.781-.209-.957-.627-.132-.704-.572-1.287-1.32-1.749-.748-.484-1.672-.726-2.772-.726-1.232 0-2.2.231-2.904.693-.704.462-1.056 1.133-1.056 2.013 0 .616.176 1.122.528 1.518.352.396.902.748 1.65 1.056.77.308 1.87.649 3.3 1.023 1.936.44 3.476.935 4.62 1.485 1.166.55 2.024 1.243 2.574 2.079.55.836.825 1.903.825 3.201 0 1.408-.396 2.64-1.188 3.696-.77 1.034-1.87 1.826-3.3 2.376-1.408.55-3.036.825-4.884.825zM25.43 11.002a.764.764 0 01-.561-.231.764.764 0 01-.231-.561V7.834c0-.22.077-.407.23-.561a.764.764 0 01.562-.231h3.003a.76.76 0 01.56.231.719.719 0 01.265.561v2.376c0 .22-.077.407-.231.561a.804.804 0 01-.594.231H25.43zM25.562 31a.764.764 0 01-.561-.231.764.764 0 01-.231-.561V14.632c0-.22.077-.407.23-.561a.764.764 0 01.562-.231H28.3c.242 0 .429.077.56.231.155.132.232.319.232.561v15.576c0 .22-.077.407-.231.561-.132.154-.32.231-.561.231h-2.74zm10.12 0a.764.764 0 01-.561-.231.764.764 0 01-.231-.561V14.632c0-.22.077-.407.231-.561a.764.764 0 01.561-.231h2.574c.22 0 .407.077.561.231a.764.764 0 01.231.561v1.122c1.144-1.496 2.739-2.244 4.785-2.244 2.442 0 4.147.979 5.115 2.937.528-.88 1.276-1.584 2.244-2.112a6.24 6.24 0 013.135-.825c1.804 0 3.278.616 4.422 1.848 1.144 1.232 1.716 3.025 1.716 5.379v9.471c0 .22-.077.407-.231.561-.132.154-.319.231-.561.231h-2.706a.764.764 0 01-.561-.231.764.764 0 01-.231-.561v-9.207c0-1.386-.297-2.387-.891-3.003-.572-.638-1.342-.957-2.31-.957-.858 0-1.595.319-2.211.957-.594.638-.891 1.639-.891 3.003v9.207c0 .22-.077.407-.231.561a.764.764 0 01-.561.231h-2.706a.764.764 0 01-.561-.231.764.764 0 01-.231-.561v-9.207c0-1.386-.308-2.387-.924-3.003-.594-.638-1.353-.957-2.277-.957-.88 0-1.628.319-2.244.957-.594.638-.891 1.639-.891 3.003v9.207c0 .22-.077.407-.231.561a.764.764 0 01-.561.231h-2.772zm31.23 6.27a.764.764 0 01-.562-.231c-.154-.132-.23-.319-.23-.561V14.632c0-.242.076-.429.23-.561a.764.764 0 01.561-.231h2.607c.242 0 .43.077.561.231.154.132.231.319.231.561v1.32c1.232-1.628 2.992-2.442 5.28-2.442 2.222 0 3.927.704 5.115 2.112 1.188 1.386 1.826 3.267 1.914 5.643.022.264.033.649.033 1.155 0 .528-.01.924-.033 1.188-.088 2.31-.726 4.18-1.914 5.61-1.188 1.408-2.893 2.112-5.115 2.112-2.222 0-3.916-.781-5.082-2.343v7.491c0 .242-.077.429-.23.561-.133.154-.32.231-.562.231h-2.805zm7.457-9.471c2.376 0 3.641-1.463 3.795-4.389.022-.22.033-.55.033-.99 0-.44-.01-.77-.033-.99-.154-2.926-1.419-4.389-3.795-4.389-1.276 0-2.222.407-2.838 1.221-.616.814-.957 1.815-1.023 3.003l-.033 1.254.033 1.287c.044 1.1.385 2.046 1.023 2.838.66.77 1.606 1.155 2.838 1.155zM88.601 31a.764.764 0 01-.561-.231.764.764 0 01-.231-.561V8.362c0-.242.077-.429.23-.561a.764.764 0 01.562-.231h2.739c.242 0 .429.077.56.231.155.132.232.319.232.561v21.846c0 .22-.077.407-.231.561-.132.154-.32.231-.561.231H88.6zm16.719.33c-2.442 0-4.389-.704-5.84-2.112-1.43-1.43-2.19-3.432-2.278-6.006l-.033-.825.033-.825c.11-2.508.88-4.477 2.31-5.907 1.452-1.43 3.388-2.145 5.808-2.145 2.596 0 4.598.792 6.006 2.376 1.43 1.584 2.145 3.696 2.145 6.336v.693c0 .22-.077.407-.231.561a.804.804 0 01-.594.231H101.69v.264c.044 1.21.374 2.233.99 3.069.638.814 1.507 1.221 2.607 1.221 1.298 0 2.343-.506 3.135-1.518.198-.242.352-.396.462-.462.132-.066.319-.099.561-.099h2.838c.198 0 .363.066.495.198.154.11.231.253.231.429 0 .528-.319 1.155-.957 1.881-.616.704-1.507 1.32-2.673 1.848-1.166.528-2.519.792-4.059.792zm3.663-10.395v-.099c0-1.298-.33-2.343-.99-3.135-.638-.792-1.529-1.188-2.673-1.188-1.144 0-2.035.396-2.673 1.188-.638.792-.957 1.837-.957 3.135v.099h7.293z" fill="#FF6838"/><path d="M119.581 31a.764.764 0 01-.561-.231.764.764 0 01-.231-.561V8.725a.88.88 0 01.198-.594.804.804 0 01.594-.231h14.322c.242 0 .44.077.594.231a.804.804 0 01.231.594v2.31c0 .242-.077.44-.231.594a.88.88 0 01-.594.198H123.31v6.27h9.933c.242 0 .44.077.594.231a.804.804 0 01.231.594v2.31c0 .242-.077.44-.231.594a.88.88 0 01-.594.198h-9.933v8.184c0 .242-.077.44-.231.594a.88.88 0 01-.594.198h-2.904zm27.318.33c-2.574 0-4.565-.66-5.973-1.98-1.408-1.342-2.167-3.168-2.277-5.478l-.033-1.452.033-1.452c.11-2.288.88-4.103 2.31-5.445 1.43-1.342 3.41-2.013 5.94-2.013 2.53 0 4.51.671 5.94 2.013 1.43 1.342 2.2 3.157 2.31 5.445.022.264.033.748.033 1.452s-.011 1.188-.033 1.452c-.11 2.31-.869 4.136-2.277 5.478-1.408 1.32-3.399 1.98-5.973 1.98zm0-3.267c1.166 0 2.068-.363 2.706-1.089.638-.748.99-1.837 1.056-3.267.022-.22.033-.649.033-1.287 0-.638-.011-1.067-.033-1.287-.066-1.43-.418-2.508-1.056-3.234-.638-.748-1.54-1.122-2.706-1.122s-2.068.374-2.706 1.122c-.638.726-.99 1.804-1.056 3.234l-.033 1.287.033 1.287c.066 1.43.418 2.519 1.056 3.267.638.726 1.54 1.089 2.706 1.089zm20.949 3.267c-2.574 0-4.565-.66-5.973-1.98-1.408-1.342-2.167-3.168-2.277-5.478l-.033-1.452.033-1.452c.11-2.288.88-4.103 2.31-5.445 1.43-1.342 3.41-2.013 5.94-2.013 2.53 0 4.51.671 5.94 2.013 1.43 1.342 2.2 3.157 2.31 5.445.022.264.033.748.033 1.452s-.011 1.188-.033 1.452c-.11 2.31-.869 4.136-2.277 5.478-1.408 1.32-3.399 1.98-5.973 1.98zm0-3.267c1.166 0 2.068-.363 2.706-1.089.638-.748.99-1.837 1.056-3.267.022-.22.033-.649.033-1.287 0-.638-.011-1.067-.033-1.287-.066-1.43-.418-2.508-1.056-3.234-.638-.748-1.54-1.122-2.706-1.122s-2.068.374-2.706 1.122c-.638.726-.99 1.804-1.056 3.234l-.033 1.287.033 1.287c.066 1.43.418 2.519 1.056 3.267.638.726 1.54 1.089 2.706 1.089zm19.727 3.267c-2.222 0-3.927-.715-5.115-2.145-1.188-1.43-1.826-3.333-1.914-5.709l-.033-1.089.033-1.056c.066-2.31.693-4.191 1.881-5.643 1.21-1.452 2.926-2.178 5.148-2.178 2.134 0 3.828.726 5.082 2.178V8.362c0-.242.077-.429.231-.561a.764.764 0 01.561-.231h2.805c.242 0 .429.077.561.231.154.132.231.319.231.561v21.846c0 .22-.077.407-.231.561-.132.154-.319.231-.561.231h-2.607a.764.764 0 01-.561-.231.764.764 0 01-.231-.561v-1.221c-1.254 1.562-3.014 2.343-5.28 2.343zm1.221-3.531c1.276 0 2.222-.407 2.838-1.221.616-.814.957-1.815 1.023-3.003.022-.264.033-.693.033-1.287 0-.572-.011-.99-.033-1.254-.044-1.1-.396-2.035-1.056-2.805-.638-.792-1.573-1.188-2.805-1.188-2.376 0-3.641 1.463-3.795 4.389l-.033.99.033.99c.154 2.926 1.419 4.389 3.795 4.389z" fill="#363853"/></svg>
